img/payment/yandex.svg

<svg width="181" height="30" viewBox="0 0 181 30" fill="none" xmlns="http://www.w3.org/2000/svg">
<path opacity="0.6" fill-rule="evenodd" clip-rule="evenodd" d="M6.00668 0.591785C2.72404 1.72433 1.00719 4.78463 1.2619 9.04833C1.4141 11.5946 2.05989 13.0235 3.74625 14.5468L4.92009 15.607L2.53683 20.8788L0.153564 26.1508L1.41805 26.2383C2.11355 26.2863 2.83812 26.266 3.02845 26.1932C3.21877 26.1201 4.36268 23.8259 5.57069 21.095L7.7673 16.1296H9.00242H10.2373V21.2108V26.292H11.508H12.7787V13.1655V0.0390625L10.1667 0.0483783C8.35832 0.0545887 7.0783 0.221704 6.00668 0.591785ZM10.1726 8.15489L10.2488 13.8712L8.90189 13.8707C7.35447 13.8704 5.8494 13.1988 5.0994 12.1747C4.26526 11.0354 3.89252 8.37789 4.29519 6.44421C4.86362 3.7156 6.59544 2.2556 9.10775 2.38686L10.0961 2.43852L10.1726 8.15489Z" fill="#FEFEFE"/>
<path opacity="0.6" fill-rule="evenodd" clip-rule="evenodd" d="M87.0682 2.65024C86.9806 4.08625 86.8355 7.62051 86.7454 10.5041C86.4837 18.9056 85.643 23.1913 84.095 24.0196C83.5557 24.3081 83.5037 24.5827 83.5037 27.1487C83.5037 29.9202 83.5136 29.9617 84.1732 29.9617C84.8055 29.9617 84.8538 29.8358 85.0399 27.7034L85.2367 25.4451H90.4248C93.2779 25.4451 95.6813 25.5561 95.7651 25.6918C95.8493 25.8276 96.0026 26.8503 96.1062 27.9643C96.2779 29.813 96.3462 29.9826 96.8878 29.9053C97.4458 29.8257 97.4814 29.6509 97.4814 26.9977V24.1748L96.7049 24.0856L95.9283 23.9961V12.0177V0.0390625H91.5778H87.2274L87.0682 2.65024ZM93.9517 12.7421V24.0337H90.1323H86.3131L86.7505 23.1876C87.6629 21.4239 88.4984 12.3223 88.571 3.35596L88.5865 1.45051H91.2691H93.9517V12.7421ZM46.8424 7.38762C44.0904 8.00584 42.4715 11.6019 42.463 17.1176C42.4568 20.8861 43.0532 22.9082 44.6373 24.4921C46.5434 26.3973 48.8778 26.7036 51.8069 25.433C53.1216 24.8625 53.1482 24.8052 52.6969 23.5111C52.349 22.5135 52.2412 22.4718 51.4864 23.0431C50.6819 23.652 48.6222 23.875 47.6232 23.4612C46.4832 22.9895 45.6847 21.3638 45.4715 19.0817L45.3012 17.2587H49.1539H53.007L53.0025 15.3533C52.9974 13.1009 52.4643 10.6334 51.7001 9.32554C50.7804 7.75149 48.7787 6.9529 46.8424 7.38762ZM72.4343 7.36165C68.8292 8.07161 66.8641 12.0598 67.21 17.9644C67.4461 21.9969 68.6933 24.5045 71.0791 25.7441C72.2663 26.3611 75.0553 26.216 76.2548 25.475C76.825 25.1227 77.2914 24.8004 77.2914 24.7586C77.2914 24.4193 76.6318 22.9068 76.4872 22.9144C76.3859 22.92 75.9854 23.1061 75.5972 23.3279C74.765 23.8036 72.964 23.873 72.1911 23.4598C71.891 23.2991 71.3641 22.6324 71.0198 21.9778C70.1555 20.334 69.9318 14.6382 70.6468 12.4858C71.5095 9.89012 73.5073 8.9676 75.5585 10.2179C76.0806 10.536 76.5454 10.7579 76.5909 10.7107C76.6366 10.6636 76.7617 10.0355 76.869 9.31509C77.0621 8.01628 77.0556 8.00245 76.1187 7.71197C74.6012 7.2414 73.5516 7.14175 72.4343 7.36165ZM103.051 7.56518C101.79 8.18622 100.894 9.31933 100.132 11.2556C99.5874 12.6405 99.4891 13.4309 99.475 16.553C99.4603 19.7564 99.5433 20.4472 100.128 21.9885C100.892 23.9989 102.109 25.2438 103.811 25.7537C106.262 26.4876 108.97 23.9377 109.724 20.1863C110.828 14.689 109.409 9.06047 106.573 7.68798C105.115 6.98225 104.292 6.95346 103.051 7.56518ZM116.025 7.70209C113.489 8.95659 112.462 11.8534 112.646 17.2296C112.785 21.2712 113.329 22.9898 114.973 24.583C116.806 26.3586 120.009 26.2567 121.718 24.3685C122.143 23.8993 122.176 23.6893 121.904 23.1817L121.574 22.5649L120.765 23.3395C119.731 24.3304 117.489 24.6313 116.409 23.9239C114.706 22.8082 113.851 18.8573 114.318 14.2554C114.607 11.4074 115.199 10.0533 116.566 9.12003C117.758 8.30591 118.986 8.43379 120.411 9.52004C121.212 10.1312 121.451 10.2018 121.651 9.88645C122.04 9.27162 121.956 8.93429 121.246 8.2678C119.911 7.01415 117.863 6.79199 116.025 7.70209ZM137.861 7.44126C136.29 7.99793 135.421 8.78072 135.627 9.452C135.894 10.3229 135.918 10.3277 136.754 9.66993C137.701 8.92553 139.457 8.43661 140.365 8.6647C140.745 8.75983 141.353 9.15447 141.716 9.54121C142.268 10.1281 142.394 10.608 142.477 12.4383L142.576 14.6317L140.521 14.8228C136.599 15.1873 134.896 16.9414 134.896 20.6168C134.896 23.1755 135.691 24.7642 137.335 25.4911C138.349 25.9394 138.75 25.9823 139.656 25.7384C140.689 25.4604 142.238 24.2454 142.238 23.713C142.238 23.5789 142.365 23.4691 142.521 23.4691C142.676 23.4691 142.803 23.7127 142.803 24.0105C142.803 24.9548 143.127 25.4451 143.751 25.4454L144.356 25.4457L144.269 18.0353C144.191 11.3086 144.131 10.516 143.617 9.44212C142.689 7.50195 140.165 6.62459 137.861 7.44126ZM174.058 7.50534C172.672 7.99934 171.888 8.71749 171.888 9.49237C171.888 10.4533 172.182 10.5241 173.069 9.77748C173.521 9.39781 174.4 8.94981 175.023 8.78213C175.967 8.52807 176.331 8.56223 177.199 8.98651C178.44 9.59287 178.908 10.702 178.931 13.095L178.947 14.7181H177.832C175.708 14.7181 173.851 15.2962 172.735 16.3046C169.934 18.8339 170.773 24.7992 174.057 25.7054C175.523 26.1102 176.639 25.7768 177.84 24.5759C178.931 23.4852 179.23 23.5557 179.23 24.9037C179.23 25.3212 179.43 25.4451 180.107 25.4451C180.834 25.4451 180.948 25.3601 180.776 24.9511C180.662 24.6793 180.489 21.1484 180.393 17.1043C180.195 8.79484 180.15 8.61586 178.008 7.64338C176.622 7.01472 175.54 6.97689 174.058 7.50534ZM16.1497 7.71847C16.0715 7.92256 16.041 12.0897 16.0819 16.979L16.1568 25.8685H17.5686H18.9805L19.0288 21.7754L19.0771 17.6822H21.1466H23.2162L23.2645 21.7754L23.3128 25.8685H24.614H25.9151V16.6941V7.51973H24.6156H23.3164L23.3221 11.4012L23.3277 15.2827H21.2328H19.1375L19.059 11.4012L18.9805 7.51973L17.6364 7.43363C16.7212 7.37492 16.2468 7.46582 16.1497 7.71847ZM30.6989 10.1309C30.6986 14.0708 30.2093 18.7478 29.5341 21.2653C29.0552 23.0516 28.8437 23.4521 28.343 23.5236C27.7636 23.606 27.7342 23.7539 27.7342 26.5743V29.5383L28.9343 29.625L30.1344 29.7119V27.8607V26.0097H34.0742H38.0142L38.098 27.774L38.1822 29.5383L39.3823 29.625L40.5824 29.7119V26.5904V23.4691H39.8764H39.1705V15.4238V7.37859H34.9348H30.6992L30.6989 10.1309ZM55.9649 7.71847C55.8867 7.92256 55.8562 12.0897 55.8971 16.979L55.972 25.8685H57.3324H58.6927L58.6859 21.3878C58.6822 18.9231 58.7669 16.9945 58.8742 17.102C58.9815 17.2093 60.0944 19.2257 61.3473 21.5828L63.6252 25.8685L65.093 25.9538C65.9006 26.0009 66.5611 25.9301 66.5611 25.7968C66.5611 25.6636 65.4268 23.4406 64.0406 20.8571L61.5198 16.16L63.6216 12.2035C66.4185 6.9385 66.325 7.37859 64.6463 7.37859H63.2358L61.157 11.4687C60.0136 13.7182 58.9948 15.5602 58.8929 15.5619C58.7909 15.5636 58.7037 13.7549 58.6986 11.5424L58.6895 7.51973L57.3985 7.43363C56.5268 7.37548 56.0612 7.46807 55.9649 7.71847ZM123.71 7.78593C123.363 8.68982 123.761 8.93118 125.603 8.93118H127.413L127.488 17.1881L127.563 25.4451H128.402H129.24L129.315 17.1881L129.39 8.93118L131.084 8.90662C133.505 8.8719 133.534 8.86258 133.434 8.15488C133.344 7.52877 133.277 7.5186 128.607 7.44238C124.621 7.37718 123.846 7.43166 123.71 7.78593ZM148.168 16.4017V25.5075L151.204 25.3991C155.878 25.232 157.204 24.1359 157.204 20.4393C157.204 18.2425 156.733 17.3315 155.185 16.531L154.345 16.0965L155.32 15.0168C157.405 12.7099 156.844 9.34925 154.142 7.95418C153.778 7.76617 152.285 7.54119 150.824 7.45396L148.168 7.2956V16.4017ZM160.511 7.55474C160.4 7.66483 160.31 11.7352 160.31 16.6001V25.4451H161.158H162.005V21.0696C162.005 16.8999 162.169 16.0389 162.738 17.226C162.878 17.5184 164.137 19.4871 165.534 21.6012C167.936 25.2337 168.126 25.4448 168.998 25.4448L169.919 25.4451L169.28 24.4543C168.928 23.9092 167.527 21.7567 166.166 19.6709L163.692 15.8786L166.413 11.9847C169.511 7.5505 169.604 7.37689 168.882 7.38282C167.984 7.39044 168.108 7.24704 164.235 12.7421L162.146 15.7061L162.005 11.6129C161.872 7.76137 161.829 7.51493 161.287 7.4373C160.97 7.39186 160.621 7.44493 160.511 7.55474ZM106.567 9.40147C107.841 10.5975 108.212 12.2467 108.208 16.6941C108.205 20.5093 108.156 20.8833 107.49 22.1988C106.986 23.1961 106.469 23.7621 105.729 24.1274C104.714 24.629 104.65 24.629 103.641 24.1274C103.027 23.8225 102.392 23.2012 102.092 22.6135C100.67 19.8211 100.645 13.5178 102.044 10.5707C102.991 8.57549 105.106 8.0287 106.567 9.40147ZM153.379 9.18948C154.59 9.6959 154.945 10.3675 154.945 12.1544C154.945 13.325 154.8 13.7422 154.135 14.4861C153.408 15.2993 153.133 15.4046 151.453 15.5116L149.58 15.6308V12.3985C149.58 10.621 149.665 9.08164 149.768 8.97832C150.102 8.64409 152.394 8.77818 153.379 9.18948ZM49.3793 10.7661C49.636 11.3095 49.9311 12.4846 50.035 13.3772L50.2239 15.0004H47.7768H45.3297L45.5325 13.5184C45.9185 10.6977 46.6685 9.55843 48.051 9.69364C48.7202 9.75913 49.0167 9.99852 49.3793 10.7661ZM36.3467 16.6941V23.4691H33.9965H31.6463L32.1289 21.5636C32.7038 19.2937 33.2406 14.6187 33.2406 11.8842V9.91919H34.7937H36.3467V16.6941ZM178.902 18.9948C178.812 21.3378 178.71 21.7674 177.997 22.8218C175.924 25.888 172.739 24.5198 172.736 20.5615C172.734 17.6121 173.799 16.4003 176.623 16.1394C177.668 16.0429 178.632 16.0519 178.764 16.1595C178.896 16.2673 178.958 17.543 178.902 18.9948ZM142.476 19.0738C142.368 22.3831 142.019 23.1639 140.209 24.1553C139.331 24.6361 139.107 24.6564 138.312 24.3272C137.052 23.8056 136.467 22.5658 136.498 20.485C136.545 17.3389 137.744 16.162 140.923 16.1406L142.572 16.1296L142.476 19.0738ZM153.523 17.0628C155.439 17.7222 156.286 20.0466 155.392 22.1858C154.795 23.6156 153.806 24.1291 151.601 24.1536L149.721 24.1748L149.642 20.4345L149.564 16.6941L151.054 16.7099C151.874 16.7187 152.985 16.8776 153.523 17.0628Z" fill="white"/>
</svg>

<svg width="181" height="30" fill="none" xmlns="http://www.w3.org/2000/svg"><path opacity=".6" fill-rule="evenodd" clip-rule="evenodd" d="M6.007.592c-3.283 1.132-5 4.193-4.745 8.456.152 2.547.798 3.976 2.484 5.499l1.174 1.06-2.383 5.272L.154 26.15l1.264.087c.696.048 1.42.028 1.61-.045.19-.073 1.335-2.367 2.543-5.098l2.196-4.965h2.47v10.163h2.541V.039l-2.611.01c-1.809.006-3.089.173-4.16.543zm4.166 7.563l.076 5.716H8.902c-1.548 0-3.053-.672-3.803-1.696-.834-1.14-1.206-3.797-.804-5.73.569-2.73 2.3-4.19 4.813-4.058l.988.052.077 5.716z" fill="#FEFEFE"/><path opacity=".6" fill-rule="evenodd" clip-rule="evenodd" d="M87.068 2.65c-.087 1.436-.233 4.97-.323 7.854-.261 8.402-1.102 12.687-2.65 13.516-.54.288-.591.563-.591 3.129 0 2.771.01 2.813.67 2.813.631 0 .68-.126.866-2.259l.197-2.258h5.188c2.853 0 5.256.111 5.34.247.084.136.238 1.158.341 2.272.172 1.849.24 2.019.782 1.941.558-.08.593-.254.593-2.907v-2.823l-.776-.09-.777-.089V.04h-8.7l-.16 2.611zm6.884 10.092v11.292h-7.639l.438-.846c.912-1.764 1.747-10.866 1.82-19.832l.016-1.905h5.365v11.291zm-47.11-5.354c-2.752.618-4.37 4.214-4.379 9.73-.006 3.768.59 5.79 2.174 7.374 1.906 1.905 4.24 2.212 7.17.941 1.315-.57 1.341-.628.89-1.922-.348-.997-.456-1.04-1.21-.468-.805.609-2.865.832-3.864.418-1.14-.471-1.938-2.097-2.151-4.38l-.17-1.822h7.705l-.005-1.906c-.005-2.252-.538-4.72-1.302-6.027-.92-1.575-2.921-2.373-4.858-1.938zm25.592-.026c-3.605.71-5.57 4.698-5.224 10.602.236 4.033 1.483 6.54 3.87 7.78 1.186.617 3.975.472 5.175-.269.57-.352 1.036-.675 1.036-.716 0-.34-.66-1.852-.804-1.845-.101.006-.502.192-.89.414-.832.476-2.633.545-3.406.132-.3-.16-.827-.828-1.171-1.482-.864-1.644-1.088-7.34-.373-9.492.862-2.596 2.86-3.518 4.911-2.268.523.318.987.54 1.033.493.046-.047.17-.675.278-1.396.193-1.299.187-1.313-.75-1.603-1.518-.47-2.567-.57-3.685-.35zm30.617.203c-1.261.621-2.157 1.754-2.919 3.69-.545 1.385-.643 2.176-.657 5.298-.015 3.203.068 3.894.653 5.435.764 2.01 1.981 3.256 3.683 3.766 2.451.734 5.159-1.816 5.913-5.568 1.104-5.497-.315-11.126-3.151-12.498-1.458-.706-2.281-.735-3.522-.123zm12.974.137c-2.536 1.255-3.563 4.151-3.379 9.528.139 4.041.683 5.76 2.327 7.353 1.833 1.776 5.036 1.674 6.745-.214.425-.47.458-.68.186-1.187l-.33-.617-.809.774c-1.034.991-3.276 1.292-4.356.585-1.703-1.116-2.558-5.067-2.091-9.669.289-2.848.881-4.202 2.248-5.135 1.192-.814 2.42-.686 3.845.4.801.611 1.04.682 1.24.366.389-.614.305-.952-.405-1.618-1.335-1.254-3.383-1.476-5.221-.566zm21.836-.26c-1.571.556-2.44 1.339-2.234 2.01.267.87.291.876 1.127.218.947-.744 2.703-1.233 3.611-1.005.38.095.988.49 1.351.876.552.587.678 1.067.761 2.897l.099 2.194-2.055.19c-3.922.365-5.625 2.12-5.625 5.795 0 2.558.795 4.147 2.439 4.874 1.014.448 1.415.491 2.321.247 1.033-.278 2.582-1.493 2.582-2.025 0-.134.127-.244.283-.244.155 0 .282.244.282.541 0 .945.324 1.435.948 1.435h.605l-.087-7.41c-.078-6.726-.138-7.519-.652-8.593-.928-1.94-3.452-2.817-5.756-2zm36.197.063c-1.386.494-2.17 1.212-2.17 1.987 0 .961.294 1.032 1.181.285.452-.38 1.331-.827 1.954-.995.944-.254 1.308-.22 2.176.205 1.241.606 1.709 1.715 1.732 4.108l.016 1.623h-1.115c-2.124 0-3.981.578-5.097 1.587-2.801 2.529-1.962 8.494 1.322 9.4 1.466.405 2.582.072 3.783-1.13 1.091-1.09 1.39-1.02 1.39.329 0 .417.2.541.877.541.727 0 .841-.085.669-.494-.114-.272-.287-3.803-.383-7.847-.198-8.31-.243-8.488-2.385-9.46-1.386-.63-2.468-.667-3.95-.139zM16.15 7.718c-.078.205-.109 4.372-.068 9.261l.075 8.89h2.824l.048-4.094.048-4.093h4.14l.048 4.093.048 4.094h2.602V7.52h-2.599l.006 3.881.006 3.882h-4.191L19.06 11.4l-.08-3.88-1.344-.086c-.915-.06-1.39.032-1.486.284zm14.549 2.413c0 3.94-.49 8.617-1.165 11.134-.479 1.787-.69 2.187-1.191 2.259-.58.082-.609.23-.609 3.05v2.964l1.2.087 1.2.087V26.01h7.88l.084 1.764.084 1.764 1.2.087 1.2.087V23.47H39.17V7.378H30.7v2.752zm25.266-2.413c-.078.205-.109 4.372-.068 9.261l.075 8.89h2.72l-.006-4.481c-.004-2.465.08-4.394.188-4.286.107.107 1.22 2.124 2.473 4.48l2.278 4.287 1.468.085c.808.047 1.468-.024 1.468-.157s-1.134-2.356-2.52-4.94L61.52 16.16l2.102-3.957c2.796-5.264 2.703-4.824 1.024-4.824h-1.41l-2.079 4.09c-1.143 2.25-2.162 4.091-2.264 4.093-.102.002-.19-1.807-.194-4.02l-.01-4.022-1.29-.086c-.872-.059-1.338.034-1.434.284zm67.745.068c-.347.904.051 1.145 1.893 1.145h1.81l.075 8.257.075 8.257h1.677l.075-8.257.075-8.257 1.694-.024c2.421-.035 2.45-.044 2.35-.752-.09-.626-.157-.636-4.827-.713-3.986-.065-4.761-.01-4.897.344zm24.458 8.616v9.105l3.036-.108c4.674-.167 6-1.263 6-4.96 0-2.197-.471-3.108-2.019-3.908l-.84-.434.975-1.08c2.085-2.307 1.524-5.668-1.178-7.063-.364-.188-1.857-.413-3.318-.5l-2.656-.158v9.106zm12.343-8.847c-.111.11-.201 4.18-.201 9.045v8.845h1.695V21.07c0-4.17.164-5.031.733-3.844.14.292 1.399 2.261 2.796 4.375 2.402 3.633 2.592 3.844 3.464 3.844h.921l-.639-.99a2032.4 2032.4 0 00-3.114-4.784l-2.474-3.792 2.721-3.894c3.098-4.434 3.191-4.608 2.469-4.602-.898.007-.774-.136-4.647 5.36l-2.089 2.963-.141-4.093c-.133-3.852-.176-4.098-.718-4.176-.317-.045-.666.008-.776.118zM106.567 9.4c1.274 1.197 1.645 2.846 1.641 7.293-.003 3.815-.052 4.19-.718 5.505-.504.997-1.021 1.563-1.761 1.928-1.015.502-1.079.502-2.088 0-.614-.304-1.249-.926-1.549-1.514-1.422-2.792-1.447-9.095-.048-12.042.947-1.996 3.062-2.542 4.523-1.17zm46.812-.212c1.211.507 1.566 1.178 1.566 2.965 0 1.171-.145 1.588-.81 2.332-.727.813-1.002.919-2.682 1.026l-1.873.119v-3.232c0-1.778.085-3.317.188-3.42.334-.335 2.626-.2 3.611.21zm-104 1.577c.257.543.552 1.719.656 2.611L50.224 15H45.33l.203-1.482c.386-2.82 1.136-3.96 2.518-3.824.67.065.966.305 1.328 1.072zm-13.032 5.928v6.775h-4.7l.482-1.905c.575-2.27 1.112-6.945 1.112-9.68V9.92h3.106v6.775zm142.555 2.3c-.09 2.344-.192 2.773-.905 3.828-2.073 3.066-5.258 1.698-5.261-2.26-.002-2.95 1.063-4.162 3.887-4.423 1.045-.096 2.009-.087 2.141.02.132.108.194 1.384.138 2.836zm-36.426.08c-.108 3.31-.457 4.09-2.267 5.081-.878.481-1.102.501-1.897.172-1.26-.521-1.845-1.761-1.814-3.842.047-3.146 1.246-4.323 4.425-4.344l1.649-.011-.096 2.944zm11.047-2.011c1.916.66 2.763 2.984 1.869 5.123-.597 1.43-1.586 1.943-3.791 1.968l-1.88.02-.079-3.74-.078-3.74 1.49.016c.82.009 1.931.168 2.469.353z" fill="#fff"/></svg>
